X:76
T:AYWAKIN2- Ay Wakin, O
S:Stenhouse's 'Illustrations' to SMM #213
Q:1/4=120
L:1/4
M:3/2
K:Am
cBAGE2|cBAdBG|cBAGE3/2 G/|AGcBA.G|E2E3/2 D/C2|\
GEAdBG|E3/2 F/ EDC3/2 G/|AGcBAG|]


